_editor/libs/builder/icons/icon.svg

<svg enable-background="new 0 0 512 512" height="512" viewBox="0 0 512 512" width="512" xmlns="http://www.w3.org/2000/svg"><path d="m480 207h-171.4l-52.6-159.1-52.6 159.1h-171.4l140.2 97.9-54.6 159.1 138.4-98.6 138.4 98.6-54.7-159.1zm-117.4 214.2-106.6-76-106.6 76 42.6-122.5-108-74.7h131l41-123.3 41 123.3h131l-108 74.6z"/></svg>

<?xml version="1.0" ?><!DOCTYPE svg  PUBLIC '-//W3C//DTD SVG 1.1//EN'  'http://www.w3.org/Graphics/SVG/1.1/DTD/svg11.dtd'><svg height="512px" id="Layer_1" style="enable-background:new 0 0 512 512;" version="1.1" viewBox="0 0 512 512" width="512px" xml:space="preserve" xmlns="http://www.w3.org/2000/svg" xmlns:xlink="http://www.w3.org/1999/xlink"><path d="M480,207H308.6L256,47.9L203.4,207H32l140.2,97.9L117.6,464L256,365.4L394.4,464l-54.7-159.1L480,207z M362.6,421.2  l-106.6-76l-106.6,76L192,298.7L84,224h131l41-123.3L297,224h131l-108,74.6L362.6,421.2z"/></svg>
